img/bell-icon.svg

<svg width="24" height="24" viewBox="0 0 24 24" fill="none" xmlns="http://www.w3.org/2000/svg">
<g id="bx:bx-bell">
<path id="Vector" d="M19 13.586V10C19 6.783 16.815 4.073 13.855 3.258C13.562 2.52 12.846 2 12 2C11.154 2 10.438 2.52 10.145 3.258C7.185 4.074 5 6.783 5 10V13.586L3.293 15.293C3.19996 15.3857 3.12617 15.4959 3.07589 15.6172C3.0256 15.7386 2.99981 15.8687 3 16V18C3 18.2652 3.10536 18.5196 3.29289 18.7071C3.48043 18.8946 3.73478 19 4 19H20C20.2652 19 20.5196 18.8946 20.7071 18.7071C20.8946 18.5196 21 18.2652 21 18V16C21.0002 15.8687 20.9744 15.7386 20.9241 15.6172C20.8738 15.4959 20.8 15.3857 20.707 15.293L19 13.586ZM19 17H5V16.414L6.707 14.707C6.80004 14.6143 6.87383 14.5041 6.92412 14.3828C6.9744 14.2614 7.00019 14.1313 7 14V10C7 7.243 9.243 5 12 5C14.757 5 17 7.243 17 10V14C17 14.266 17.105 14.52 17.293 14.707L19 16.414V17ZM12 22C12.6193 22.0008 13.2235 21.8086 13.7285 21.4502C14.2335 21.0917 14.6143 20.5849 14.818 20H9.182C9.38566 20.5849 9.76648 21.0917 10.2715 21.4502C10.7765 21.8086 11.3807 22.0008 12 22Z" fill="#3670C7"/>
</g>
</svg>

<svg width="24" height="24" fill="none" xmlns="http://www.w3.org/2000/svg"><path d="M19 13.586V10c0-3.217-2.185-5.927-5.145-6.742A1.99 1.99 0 0 0 12 2a1.99 1.99 0 0 0-1.855 1.258C7.185 4.074 5 6.783 5 10v3.586l-1.707 1.707A.996.996 0 0 0 3 16v2a1 1 0 0 0 1 1h16a1 1 0 0 0 1-1v-2a.996.996 0 0 0-.293-.707L19 13.586ZM19 17H5v-.586l1.707-1.707A.996.996 0 0 0 7 14v-4c0-2.757 2.243-5 5-5s5 2.243 5 5v4c0 .266.105.52.293.707L19 16.414V17Zm-7 5a2.98 2.98 0 0 0 2.818-2H9.182A2.98 2.98 0 0 0 12 22Z" fill="#3670C7"/></svg>
